svgs/sharp-light/credit-card.svg

<svg xmlns="http://www.w3.org/2000/svg" viewBox="0 0 576 512"><!--! Font Awesome Pro 6.6.0 by @fontawesome - https://fontawesome.com License - https://fontawesome.com/license (Commercial License) Copyright 2024 Fonticons, Inc. --><path d="M32 64l0 64 512 0 0-64L32 64zm0 96l0 64 512 0 0-64L32 160zm0 96l0 192 512 0 0-192L32 256zM0 32l32 0 512 0 32 0 0 32 0 384 0 32-32 0L32 480 0 480l0-32L0 64 0 32zM96 352l96 0 0 32-96 0 0-32zm128 0l160 0 0 32-160 0 0-32z"/></svg>

<svg xmlns="http://www.w3.org/2000/svg" viewBox="0 0 576 512"><!--! Font Awesome Pro 6.4.0 by @fontawesome - https://fontawesome.com License - https://fontawesome.com/license (Commercial License) Copyright 2023 Fonticons, Inc. --><path d="M32 64v64H544V64H32zm0 96v64H544V160H32zm0 96V448H544V256H32zM0 32H32 544h32V64 448v32H544 32 0V448 64 32zM96 352h96v32H96V352zm128 0H384v32H224V352z"/></svg>
